X:53
T:Hoppin' Satan
M:4/4
R:reel
Q:1/2=120
L:1/4
K:A
"A"EEFF|"A"EEFF|"A"EEFF|"E"E4|"E"EEFF|"E"GGFE|
"E"EGFD|"A"E4::"A"eeff|"A"eeff|"A"eefe|"D7"f4|
"D7"ffgf|"A"eefe|"E7"e^d=dB|"D"A4:|
%%newpage
